icons/solid/chart-bar-square.svg

<svg width="24" height="24" viewBox="0 0 24 24" fill="none" xmlns="http://www.w3.org/2000/svg">
<path fill-rule="evenodd" clip-rule="evenodd" d="M3 6C3 4.34315 4.34315 3 6 3H18C19.6569 3 21 4.34315 21 6V18C21 19.6569 19.6569 21 18 21H6C4.34315 21 3 19.6569 3 18V6ZM7.5 13.5C7.91421 13.5 8.25 13.8358 8.25 14.25V16.5C8.25 16.9142 7.91421 17.25 7.5 17.25C7.08579 17.25 6.75 16.9142 6.75 16.5V14.25C6.75 13.8358 7.08579 13.5 7.5 13.5ZM11.25 12C11.25 11.5858 10.9142 11.25 10.5 11.25C10.0858 11.25 9.75 11.5858 9.75 12V16.5C9.75 16.9142 10.0858 17.25 10.5 17.25C10.9142 17.25 11.25 16.9142 11.25 16.5V12ZM13.5 9C13.9142 9 14.25 9.33579 14.25 9.75V16.5C14.25 16.9142 13.9142 17.25 13.5 17.25C13.0858 17.25 12.75 16.9142 12.75 16.5V9.75C12.75 9.33579 13.0858 9 13.5 9ZM17.25 7.5C17.25 7.08579 16.9142 6.75 16.5 6.75C16.0858 6.75 15.75 7.08579 15.75 7.5V16.5C15.75 16.9142 16.0858 17.25 16.5 17.25C16.9142 17.25 17.25 16.9142 17.25 16.5V7.5Z" fill="#0F172A"/>
</svg>

<svg xmlns="http://www.w3.org/2000/svg" viewBox="0 0 24 24" fill="currentColor" aria-hidden="true" data-slot="icon">
  <path fill-rule="evenodd" d="M3 6a3 3 0 0 1 3-3h12a3 3 0 0 1 3 3v12a3 3 0 0 1-3 3H6a3 3 0 0 1-3-3V6Zm4.5 7.5a.75.75 0 0 1 .75.75v2.25a.75.75 0 0 1-1.5 0v-2.25a.75.75 0 0 1 .75-.75Zm3.75-1.5a.75.75 0 0 0-1.5 0v4.5a.75.75 0 0 0 1.5 0V12Zm2.25-3a.75.75 0 0 1 .75.75v6.75a.75.75 0 0 1-1.5 0V9.75A.75.75 0 0 1 13.5 9Zm3.75-1.5a.75.75 0 0 0-1.5 0v9a.75.75 0 0 0 1.5 0v-9Z" clip-rule="evenodd"/>
</svg>
